outputs/icons/content/content_sharp.svg

<svg xmlns="http://www.w3.org/2000/svg" width="1200" height="1200" fill="none"><g clip-path="url(#a)"><path fill="#000" d="M800 50H100v800h100V150h600zm250 200H300v900h750zm-100 800H400V350h550z"/></g><defs><clipPath id="a"><path fill="#fff" d="M0 0h1200v1200H0z"/></clipPath></defs></svg>

<svg width="1200" height="1200" viewBox="0 0 1200 1200" fill="none" xmlns="http://www.w3.org/2000/svg"><g clip-path="url(#clip0_122_139)"><path d="M800 50H100V850H200V150H800V50ZM1050 250H300V1150H1050V250ZM950 1050H400V350H950V1050Z" fill="black"/></g><defs><clipPath id="clip0_122_139"><path width="24" fill="white" d="M0 0H1200V1200H0V0z"/></clipPath></defs></svg>
